X: 1
T: The Lone Star Reel
T: 32x8 3C (Barnes, Kaleidoscope & other Dances)
P: Valley Gold
C: Roy Hendrie Band, "Valley Gold"
C: arr. T. Traub 6-29-2012
R: reel
M: C|
L: 1/8
K: G
|: DE|"G"G2 GE D2 DE|"G"GFGA BG G2|"Am"A2 AG E2 EG|"C"AGAB "D"cA A2|"G"G2 GE D2 DE|
"G"GFGA BGGE|"C"CEGE "G"DEFG|"D"ADEF "G"G2 :||: Bc|"G"d2 de dBGB|"G"dGeG dBGB|
"Am"e2 ef edBd|"C"edef gfge|"G"d2 de dBGB|"G"dGeG dBGF|"C"EFGE "G"DEFG|"D"ADEF "G" G2 :|

